src/images/Icons/logo_violet_icon.svg

<?xml version="1.0" encoding="UTF-8"?>
<svg width="32px" height="38px" viewBox="0 0 32 38" version="1.1" xmlns="http://www.w3.org/2000/svg" xmlns:xlink="http://www.w3.org/1999/xlink">
    <!-- Generator: Sketch 51.3 (57544) - http://www.bohemiancoding.com/sketch -->
    <title>Shape</title>
    <desc>Created with Sketch.</desc>
    <defs></defs>
    <g id="Welcome" stroke="none" stroke-width="1" fill="none" fill-rule="evenodd">
        <g id="CLanding" transform="translate(-311.000000, -1526.000000)" fill="#B092ED" fill-rule="nonzero">
            <g id="Rooms" transform="translate(0.000000, 1385.000000)">
                <g id="Group-15" transform="translate(311.000000, 141.000000)">
                    <g id="Group-10">
                        <g id="CH_sign">
                            <path d="M15.999179,0 L0,14.362962 L0,38 L32,38 L32,14.362962 L15.999179,0 Z M26.8557648,32.8315225 L5.14259326,32.8315225 L5.14259326,16.6744338 L15.999179,6.92778287 L26.8557648,16.6744338 L26.8557648,32.8315225 Z M11.2949869,22.4448226 C11.2850136,24.3685011 12.4248082,26.1083692 14.1818313,26.8515184 C15.9388543,27.5946676 17.9662376,27.1943869 19.3167386,25.8376971 C20.6672397,24.4810072 21.0742452,22.4357434 20.3475924,20.6575022 C19.6209396,18.879261 17.9040828,17.7190995 15.999179,17.7190732 C13.4081096,17.7126541 11.302232,19.828182 11.2949869,22.4448226 Z" id="Shape"></path>
                        </g>
                    </g>
                </g>
            </g>
        </g>
    </g>
</svg>

<svg width="32" height="38" viewBox="0 0 32 38" xmlns="http://www.w3.org/2000/svg"><path d="M16 0L0 14.363V38h32V14.363L16 0zm10.856 32.832H5.143V16.674l10.856-9.746 10.857 9.746v16.158zM11.295 22.445a4.752 4.752 0 002.887 4.407 4.67 4.67 0 005.135-1.014 4.785 4.785 0 001.03-5.18A4.704 4.704 0 0016 17.719c-2.59-.006-4.697 2.11-4.704 4.726z" fill="#B092ED"/></svg>
